src/modules/31-filestore/images/file-add-yaml.svg

<svg fill="none" height="16" viewBox="0 0 16 16" width="16" xmlns="http://www.w3.org/2000/svg"><path d="m12.5 14.5h-9v-12h7l2 2.5z" fill="#fff"/><path clip-rule="evenodd" d="m3 2.5c0-.27614.22386-.5.5-.5h7.3333c.1574 0 .3056.0741.4.2l2 2.66667c.0649.08654.1.19181.1.3v9.33333c0 .2761-.2238.5-.5.5h-9.3333c-.27614 0-.5-.2239-.5-.5zm1 .5v11h8.3333v-8.66667l-1.75-2.33333z" fill="#07a0ab" fill-rule="evenodd"/><path d="m4 8h8.25v6h-8.25z" fill="#a2e7d7" opacity=".2"/><g fill="#07a0ab"><path d="m5.40682 13c-.05862 0-.11199-.0042-.16011-.0126-.04811-.0076-.08398-.016-.10761-.0251l.09449-.2801c.07174.0167.13561.024.1916.0217s.10542-.0206.14829-.0549c.04374-.0343.08224-.0903.11548-.1681l.04856-.1166-.73752-1.7789h.41994l.51049 1.3628h.021l.51048-1.3628h.42126l-.8307 1.9904c-.03849.0915-.08748.1689-.14698.2321-.05949.0641-.13035.1121-.21259.1441s-.1776.048-.28608.048z"/><path d="m7.19378 12.3415v-1.7561h.37664v.2858h.02493c.042-.0968.11067-.1723.20604-.2264.09536-.0549.20953-.0823.34251-.0823.13473 0 .24759.0274.33857.0823.09187.0549.15967.1304.20341.2264h.021c.04812-.0938.12467-.1685.22965-.2241.10499-.0564.2301-.0846.37533-.0846.18284 0 .33201.0499.44749.1498.11636.0998.17454.2504.17454.4516v1.1776h-.39238v-1.1456c0-.1189-.03718-.205-.11155-.2584-.07436-.0534-.16316-.08-.2664-.08-.12773 0-.22703.0343-.29789.1029-.07087.0678-.1063.1551-.1063.2618v1.1193h-.39107v-1.1673c0-.0953-.03412-.1719-.10236-.2298-.06824-.058-.15704-.0869-.2664-.0869-.07436 0-.14304.0171-.20603.0514-.06212.0336-.11242.0804-.15091.1406-.03762.0603-.05643.13-.05643.2093v1.0827z"/><path d="m11 10v2.3415h-.3924v-2.3415z"/></g></svg>

<svg width="16" height="16" viewBox="0 0 16 16" fill="none" xmlns="http://www.w3.org/2000/svg">
<path d="M12.5 14.5H3.5V2.5H10.5L12.5 5V14.5Z" fill="white"/>
<path fill-rule="evenodd" clip-rule="evenodd" d="M3 2.5C3 2.22386 3.22386 2 3.5 2H10.8333C10.9907 2 11.1389 2.0741 11.2333 2.2L13.2333 4.86667C13.2982 4.95321 13.3333 5.05848 13.3333 5.16667V14.5C13.3333 14.7761 13.1095 15 12.8333 15H3.5C3.22386 15 3 14.7761 3 14.5V2.5ZM4 3V14H12.3333V5.33333L10.5833 3H4Z" fill="#07A0AB"/>
<rect opacity="0.2" x="4" y="8" width="8.25" height="6" fill="#A2E7D7"/>
<path d="M5.40682 13C5.3482 13 5.29483 12.9958 5.24671 12.9874C5.1986 12.9798 5.16273 12.9714 5.1391 12.9623L5.23359 12.6822C5.30533 12.6989 5.3692 12.7062 5.42519 12.7039C5.48118 12.7016 5.53061 12.6833 5.57348 12.649C5.61722 12.6147 5.65572 12.5587 5.68896 12.4809L5.73752 12.3643L5 10.5854H5.41994L5.93043 11.9482H5.95143L6.46191 10.5854H6.88317L6.05247 12.5758C6.01398 12.6673 5.96499 12.7447 5.90549 12.8079C5.846 12.872 5.77514 12.92 5.6929 12.952C5.61066 12.984 5.5153 13 5.40682 13Z" fill="#07A0AB"/>
<path d="M7.19378 12.3415V10.5854H7.57042V10.8712H7.59535C7.63735 10.7744 7.70602 10.6989 7.80139 10.6448C7.89675 10.5899 8.01092 10.5625 8.1439 10.5625C8.27863 10.5625 8.39149 10.5899 8.48247 10.6448C8.57434 10.6997 8.64214 10.7752 8.68588 10.8712H8.70688C8.755 10.7774 8.83155 10.7027 8.93653 10.6471C9.04152 10.5907 9.16663 10.5625 9.31186 10.5625C9.4947 10.5625 9.64387 10.6124 9.75935 10.7123C9.87571 10.8121 9.93389 10.9627 9.93389 11.1639V12.3415H9.54151V11.1959C9.54151 11.077 9.50433 10.9909 9.42996 10.9375C9.3556 10.8841 9.2668 10.8575 9.16356 10.8575C9.03583 10.8575 8.93653 10.8918 8.86567 10.9604C8.7948 11.0282 8.75937 11.1155 8.75937 11.2222V12.3415H8.3683V11.1742C8.3683 11.0789 8.33418 11.0023 8.26594 10.9444C8.1977 10.8864 8.1089 10.8575 7.99954 10.8575C7.92518 10.8575 7.8565 10.8746 7.79351 10.9089C7.73139 10.9425 7.68109 10.9893 7.6426 11.0495C7.60498 11.1098 7.58617 11.1795 7.58617 11.2588V12.3415H7.19378Z" fill="#07A0AB"/>
<path d="M11 10V12.3415H10.6076V10H11Z" fill="#07A0AB"/>
</svg>
